X: 1
T: Lady Loudon Strathspey
C: trad. Cape Breton setting
R: strathspey
S: Fiddle Hell Online 2021-11-04 Andrea Beaton workshopj
Z: 2021 John Chambers <jc:trillian.mit.edu>
M: 4/4
L: 1/16
K: C
a |\
gc3 g3e gc3 g3e | gc3 g3e f3d (3d2e2f2 |\
gc3 g3e c3e f3e | fa3 g3f [1 ec3 c3 :|2 e3d c3 |]
A |\
Gc3 E3c G3c e3c | Gc3 E3c d3D (3D2E2F2 |\
Gc3 E3c G3c e3c | fa3 g3f e3d c3 ||
A |\
Gc3 E3c G3c e3c | Gc3 E3c d3D D3g |\
af3 g3e f3d e3c | Ba3 g3f e3c c3 |]
